X: 13094
T: Fir Bolg
R: reel
M: 4/4
K: Cmajor
(D|E2) EE ^G2 A2|B3 B BB(AB)|(Bc)AB cedc|B3 B (Bc)(BA)|
E2 EE ^G2 A2|B3 B BBAG|F3 F FAGF|1 E3 E (EF)(ED)|2 (E2 D2 E2) z2||
.e2 .B2 .B2 .e2|d2 (cB A4)|AcBA .G.A.F.G|E2 E2 E4|
.e2 .B2 .B2 .e2|d2 (cB A4)|(A^A)=AG (FG)(FG)|1 E2 E2 E4|2 E2 E2 E3||

